!!!OTL: Zhouzongli zuoke daowojia
!!!ARE: Asia, China,ÿAnhui Feixi
!! III, 518, 2)
!!!SCT: C2034
!!!YEM: Copyright 1995, estate of Helmut Schaffrath.
**kern
*ICvox
*Ivox
*M2/4
*k[f#]
*G:
{8ee
8gg
8ee
8dd
=1
8ee
8gg
4dd
=2
8b
8gg
8ee
8b
=3
2dd}
=4
{8b
16b
16dd
8ee
8gg
=5
8dd
8b
8a
8g
=6
8b
16b
16dd
8a
8e
=7
2g}
=8
{8b
16b
16a
8g
16g
16a
=9
8b
16b
16a
4b
=10
8b
16b
16dd
8a
8e
=11
2g}
=12
{8b
16b
16a
8g
16g
16a
=13
16b
8b
16a
4b
=14
8b
16b
16dd
8a
8e
=15
2g}
==
!!!AGN: Xiaodiao, Zhuanggong diao
!!!AMT: simple duple
!!!AIN: vox
!!!EED: Helmut Schaffrath
!!!EEV: 1.0
*-
